X:1
T:Title
%%score { ( 1 3 ) | ( 2 4 ) }
L:1/8
M:9/8
K:Bb
V:1 treble nm="Grand Piano"
V:3 treble 
V:2 bass 
V:4 bass 
V:1
 z3 z3[Q:1/4=104] [DF]3 | [Fd]3- [Fd][Ec][Fd] [Ec][DB][DF] | [FA] [EG]2- [EG]3 [FG]3 | %3
 [=Ec]3- [Ec][Ed][Ec] [DEB][CEA][B,EG] |[M:3/4] c6 |[M:3/8] F3 | %6
[M:9/8] [Fd]3- [Fd][Ec][Fd] [Ec][DB][DF] | [EG]3 [GB]3 [Ge]3 | d3- dFd cFc |[M:3/4] [DB]6 | %10
[M:3/8] [DF]3 |[M:9/8] .[Ec]6 z3 | [DB]3[K:bass][K:treble] z3 z3 | .[^Fd]6 z3 | [GB]6 z3 | %15
 [GB]3- [GB][^FA][GB] [Gc][GB][EG] | [DF]<Bc d3 d3 | [=Ec]3- [Ec][Ed][Ec] [DEB][CEA][B,EG] | %18
[M:3/4] c6 |[M:3/8] F3 |[M:9/8] .d6 z3 | [DB]3 [F,DF]3 B3 | .B6 z3 |[M:3/4] [DF]6 |[M:3/8] [DF]3 | %25
[M:9/8] BBB c2 c ddd | e8- e | [Ge]3 dFd cFc |[M:3/4] [DB]6 |] %29
V:2
 z3 z3 [B,,B,]3 | [B,,B,]3- [B,,B,][B,,B,][B,,B,] [B,,B,][B,,B,][B,,B,] | %2
 [D,B,] [E,B,]2- [E,B,]3 [D,=B,]3 | [C,G,]3- [C,G,][C,G,][C,G,] C,C,C, |[M:3/4] [F,A,E]6 | %5
[M:3/8] F,3 |[M:9/8] [B,,B,]3- [B,,B,][B,,B,][B,,B,] [B,,B,][B,,B,][B,,B,] | %7
 [E,B,]3 [E,B,]3 [C,C]3 | [F,B,F]3- [F,B,F][F,B,D][F,B,F] [F,A,E][F,A,E][F,E] |[M:3/4] [B,,B,]6 | %10
[M:3/8] [B,,B,]3 |[M:9/8] [F,A,]F,F, F,[F,G,E][F,A,E] [F,G][F,F][F,E] | %12
 [B,,F,]B,,B,, [B,,B,]3 [B,,B,]3 | [D,A,]D,D, D,[D,D][D,D] [D,D][D,D][D,D] | [G,D]G,G, G,3 F,3 | %15
 [E,E]3- [E,E][E,E][E,E] [E,E][E,E][E,B,] | [B,,B,]<[D,B,D][K:treble][F,A,F] [B,F]3 [B,F]3 | %17
 [C,G,]3- [C,G,][C,G,][C,G,] C,C,C, |[M:3/4] [F,A,E]6 |[M:3/8][K:treble] D3 | %20
[M:9/8] .F6[K:bass] z3 | [B,,B,]3 B,,3[K:treble] A3 | .G6[K:bass] z3 |[M:3/4] [B,,B,]6 | %24
[M:3/8] [B,,B,]3 |[M:9/8] [D,B,D][D,B,D][D,B,D][K:treble] [F,A,F]2 [F,A,F] [B,F][B,F][A,B,F] | %26
 [G,B,E]8- [G,B,E] | [C,C]3 [F,B,F][F,B,D][F,B,F] [F,A,E][F,A,E][F,E] |[M:3/4] [B,,B,]6 |] %29
V:3
 x9 | x9 | x9 | x9 |[M:3/4] x6 |[M:3/8] x3 |[M:9/8] x9 | x9 | x9 |[M:3/4] x6 |[M:3/8] x3 | %11
[M:9/8] z A,A, A,=Bc edc | z[K:bass] F,F,[K:treble] [Fd]3 [Fd]3 | z A,A, A,[^FA][GB] [Ac][GB][FA] | %14
 z DD D3 [DAB]3 | x9 | x9 | x9 |[M:3/4] x6 |[M:3/8] x3 |[M:9/8] z2 B, B,[=E_d][F=d] [Ge][Fd][Ec] | %21
 x9 | z2 B, B,[B,^FA][B,GB] [EGe][B,GB][B,EG] |[M:3/4] x6 |[M:3/8] x3 |[M:9/8] x9 | x9 | x9 | %28
[M:3/4] x6 |] %29
V:4
 x9 | x9 | x9 | x9 |[M:3/4] x6 |[M:3/8] x3 |[M:9/8] x9 | x9 | x9 |[M:3/4] x6 |[M:3/8] x3 | %11
[M:9/8] x9 | x9 | x9 | x9 | x9 | x2[K:treble] x7 | x9 |[M:3/4] x6 |[M:3/8][K:treble] x3 | %20
[M:9/8] z2[K:bass] B,, B,,[B,,B,][B,,B,] [B,,B,][B,,B,][B,,B,] | x6[K:treble] x3 | %22
 z2[K:bass] E, E,E,E, E,E,E, |[M:3/4] x6 |[M:3/8] x3 |[M:9/8] x3[K:treble] x6 | x9 | x9 | %28
[M:3/4] x6 |] %29

